X:1
T:James Gibb editions
T:O food the pilgrim needeth - Barnby
%%score [ ( 1 2 ) ( 3 4 ) ]
L:1/8
Q:1/4=69
M:4/4
K:Eb
V:1 treble nm="Midi_74"
V:2 treble 
V:3 bass nm="Midi_74"
V:4 bass 
V:1
"^Philip Schaff\n(1819-93)""^O food the pilgrim needeth""^Joseph Barnby\n(1838-96)""^776. D""^I" G2 | %1
 F2 E2 c2 B2 | (B2 A2) G2 || G2 | =A2 B2 e2 d2 | c4"^1" B2 || =A2 | G2 G2 G2 ^F2 | G6 || %9
[M:4/4] D2 | E2 F2 G2 c2 | (B2 A2) G2 | F2 | A2 =A2 B2 e2 | c4 B2 || B2 | e2 B2 A"^rall."G F2 | %17
 E6 || A4 G4 |] %19
V:2
 E2 | D2 E2 E2 _D2 | (_D2 C2) B,2 || B,2 | C2 B,2 C2 D2 | ED- E2 D2 || C2 | =B,2 _B,2 =A,2 D2 | %8
 D6 ||[M:4/4] !courtesy!_B,2 | C2 D2 E2 E2 | (E2 D2) E2 | D2 | E2 E2 D2 G2 | E4 D2 || F2 | %16
 E2 E2 C2 !courtesy!=D2 | E6 || E4 E4 |] %19
V:3
 B,2 | A,2 G,2 A,2 E,2 | E,4 E,2 || G,2 | F,2 F,2 F,2 B,2 | B,2 =A,2 B,2 || E2 | D2 D2 D2 =A,2 | %8
 =B,6 ||[M:4/4] G,2 | %10
"^1. O Food, the pilgrim needeth,\nO Bread, which angels feedeth,\nO Manna from above!\nThe souls that hunger, feed Thou,\nThe hearts that seek Thee, lead Thou\nWith Thy sweet, tender love.\n\n2. O Fount of love redeeming,\nO River ever streaming\nFrom Jesu's holy side;\nCome Thou, Thyself bestowing\nOn thirsty souls, and flowing\nTill all are satisfied.\n\n3. Jesu, this feast receiving,\nThy word of truth believing,\nWe Thee unseen adore:\nGrant, when the veil is rended,\nThat we, to heaven ascended,\nMay see Thee evermore." G,2 F,2 E,2 F,2 | %11
 F,2- B,2 B,2 | B,2 | B,2 C2 B,2 B,2 | (B,G, =A,2) B,2 || D2 | E2 _D2 CB, A,2 | G,6 || C4 B,4 |] %19
V:4
 E,2 | B,,2 C,2 A,,2 G,,2 | (A,,2 C,2) E,2 || E,2 | E,2 D,2 =A,,2 B,,2 | F,4 B,,2 || C,2 | %7
 D,2 D,2 D,2 D,2 | G,,6 ||[M:4/4] G,,2 | C,2 C,2 C,2 A,,2 | B,,4 E,2 | B,,2 | E,2 C,2 G,2 E,2 | %14
 F,4 B,2 || !courtesy!_A,2 | G,2 G,,2 A,,2 B,,2 | E,6 || A,,4 E,4 |] %19

